X: 35813
T: Saltees, The
R: reel
M: 4/4
K: Amajor
|:AB|cBAG AFEC|A,CEA cBAG|Fdd/c/d dcBA|Gee/f/e fe^de|
c/B/A AG AFEC|A,CEA cBAG|Fddc dagf|e/f/e d/c/B A2:|
|:cd|eAce a/b/aea|c'bag afec|d/e/d B/c/d cBAc|BEGB edcB|
AGAB c/B/A ce|agab c'bag|agfe fedc|BEGB A2:|

